X:2
T:Animas Reel
C:Bernie Waugh
S:Bernie Waugh
R:Reel
M:4/4
L:1/8
K:G
|:(3DEF|\
"G"GFGA BAGF|"D"ED2 {E}D3 (3DEF|"G"GFGA BAGA|"Bm"Bd2 {B}d3 Bd|
"Em"edeg- gfed|"C"dedB AGEG|"Am"AGAc- cBAG|"C"EGEC "D"D2:|
|:ef|\
"G"gg/a//g//fg edBA|"D"Bd2 {B}d3 ef|\
"G"g/a//g//fge- edBA|"Bm"BdeB d2ef|
"Em"gg/a//g//fg edBd|"C"cc/d//c//Bc AGEG|\
"Am"ABAG- "D"GE/F/ED|"G"EG2 {E}G3:|

